!!!!SEGMENT: pl-sa--549-a-ix-29--023_anonim--rondo-pastorale.krn
!!!cenid: 18xx:477
!!!COM: Anonim
!!!COM-rismID: pe30004985
!!!CDT:
!!!CNT:
!!!OTL: Rondo pastorale
!!!PDT:
!!!AGN: Secular; Rondo
!!!YEC: Copyright 2022 Narodowy Instytut Fryderyka Chopina (https://polishscores.org)
!!!YEM: License CC-BY-4.0 (https://creativecommons.org/licenses/by/4.0)
!!!SMS-siglum: PL-SA
!!!SMS-shelfmark: 549/A IX 29
!!!SMS-shelfwork: 023 W
!!!SMS-variant:
!!!SMS-altvar:
!!!NIFC-rismSourceID: 1001068862
!!!NIFC-rismChildID: 1001068862
!!!NIFC-islandoraID: none
!!!URL-pdf-islandora:
!!!URL-scan: https://bc.bdsandomierz.pl/dlibra/publication/1441/edition/1409/content @EN{Scan in the Sandomierz Diocese Digital Library} @PL{Skany w portalu Cyfrowa Biblioteka Diecezjalna w Sandomierzu}
!!!IIIF:
!!!ONB-nifc: Str. 16 (s. 3) – str. 18 (s. 2)
!!!AIN: 1 piano
!!!key: B
**kern	**fing	**kern	**fing	**dynam
*part1	*	*part1	*	*
*staff2	*	*staff1	*	*
*I"Piano	*	*I"Piano	*	*
*Ipiano	*	*Ipiano	*	*
*ICklav	*	*ICklav	*	*
*IGsolo	*	*IGsolo	*	*
*clefF4	*	*clefG2	*	*
*k[b-e-]	*	*k[b-e-]	*	*
*B:	*	*B:	*	*
*M12/8	*	*M12/8	*	*
=1	=1	=1	=1	=1
*	*	*2\right	*	*
!	!	!	!	!LO:DY:rj
8B-\L	.	2.ff 2.dd\	2 4	f
8A\	.	.	.	.
8B-\J	.	.	.	.
8d\L	.	.	.	.
8c\	.	.	.	.
8B-\J	.	.	.	.
8A\L	1	4.ff 4.dd\	.	.
8G\	.	.	.	.
8F\J	.	.	.	.
8E-\L	4	4.ff 4.dd\	.	.
8D\	1	.	.	.
8C\J	.	.	.	.
=2	=2	=2	=2	=2
[2.BB-/	.	8ffL 8dd\	.	.
!LO:TX:b:i:t=synkopa.	!	!	!	!
.	.	8gg 8ee-\	.	.
.	.	8ffJ 8dd\	.	.
.	.	8ffL 8dd\	.	.
.	.	8ff 8dd\	.	.
.	.	8ffJ 8dd\	.	.
4.BB-/_	.	8ffL 8dd\	.	.
.	.	8ee- 8cc\	.	.
.	.	8ddJ 8b-\	2 4	.
!LO:TX:b:i:t=synko	!	!	!	!
4BB-/]	.	8ddL 8b-\	.	.
.	.	8dd 8b-\	.	.
8AA/	.	8ddJ 8b-\	.	.
=3	=3	=3	=3	=3
8GG/L	.	2.dd 2.b-\	.	.
8BB-/	.	.	.	.
8AA/J	.	.	.	.
8GG/L	.	.	.	.
8BB-/	3	.	.	.
8C/J	1	.	.	.
8C#X\L	3	4.dd 4.b-\	.	.
8D\	1	.	.	.
8E-\J	3	.	.	.
8En\L	2	4.dd 4.b-\	.	.
8F\	1	.	.	.
8F#X\J	2	.	.	.
=4	=4	=4	=4	=4
1.G	.	8ddL 8b-\	.	.
.	.	8ee- 8cc\	.	.
.	.	8ddJ 8b-\	.	.
.	.	8ddL 8b-\	.	.
.	.	8dd 8b-\	.	.
.	.	8ddJ 8b-\	.	.
.	.	8ddL 8b-\	.	.
.	.	8cc 8a\	.	.
.	.	8b-J 8g\	.	.
.	.	8b-L 8g/	.	.
.	.	8b- 8g/	.	.
.	.	8b-J 8g/	.	.
=5	=5	=5	=5	=5
8E-\L	3	2.gg 2.ee-\	.	ff
8G\	.	.	.	.
8F\J	.	.	.	.
8E-\L	.	.	.	.
8G\	1	.	.	.
8A\J	4	.	.	.
8B-\L	.	4.ff 4.dd\	.	.
8d\	.	.	.	.
8c\J	.	.	.	.
8B-\L	.	4.ff 4.dd\	.	.
8c\	.	.	.	.
8d\J	.	.	.	.
!!LO:LB:g=original
=6	=6	=6	=6	=6
8F\L	.	2.ee- 2.cc\	.	.
8A\	.	.	.	.
8G\J	.	.	.	.
8F\L	.	.	.	.
8G\	.	.	.	.
8A\J	.	.	.	.
8B-\L	2	4.dd 4.b-\	.	.
8A\	1	.	.	.
8G\J	2	.	.	.
8F\L	3	4.dd 4.b-\	.	.
8E-\	4	.	.	.
8D\J	5	.	.	.
=7	=7	=7	=7	=7
!	!	!	!	!LO:HP:b:t=Decrescendo i\nco raz ciszej
8E-\L	4	4.cc 4.b-\	2 3	>
8G\	.	.	.	.
8c\J	.	.	.	.
*rep	*	*	*	*
8E-\L	4	4cc 4b-\	.	.
8G\	.	.	.	.
8c\J	.	8cc 8b-\	.	.
*Xrep	*	*	*	*
8En\L	3	4.cc 4.b-\	.	.
8G\	.	.	.	.
8c\J	.	.	.	.
*rep	*	*	*	*
8E\L	3	4cc 4b-\	.	.
8G\	.	.	.	.
8c\J	.	8cc 8b-\	.	.
*Xrep	*	*	*	*
=8	=8	=8	=8	=8
8F\L	.	4cc 4a\	1 3	p
8A\	.	.	.	.
8c\J	.	8ff 8a\	.	.
*rep	*	*	*	*
8F\L	.	4cc 4a\	.	.
8A\	.	.	.	.
8c\J	.	8cc 8a\	.	.
*Xrep	*	*	*	*
8En\L	.	4cc 4b-\	.	.
8G\	.	.	.	.
8c\J	.	8dd 8b-\	.	.
*rep	*	*	*	*
8E\L	.	4cc 4b-\	.	.
8G\	.	.	.	.
8c\J	.	8cc 8b-\	.	.
*Xrep	*	*	*	*
=9	=9	=9	=9	=9
8F\L	.	4cc 4a\	.	pp
8A\	.	.	.	.
8c\J	.	8ff 8a\	.	.
*rep	*	*	*	*
8F\L	.	4cc 4a\	.	.
8A\	.	.	.	.
8c\J	.	8cc 8a\	.	.
*Xrep	*	*	*	*
8En\L	.	4cc 4b-\	.	.
8G\	.	.	.	.
8c\J	.	8dd 8b-\	.	.
*rep	*	*	*	*
8E\L	.	4cc 4b-\	.	.
8G\	.	.	.	.
8c\J	.	8cc 8b-\	.	.
*Xrep	*	*	*	*
=10	=10	=10	=10	=10
*2\right	*	*	*	*
!	!	!LO:TX:b:i:t=ralentando. i\nco raz wolniej	!	!
2F\	.	8a\L	1	.
.	.	8cc\	3	.
.	.	8ff\J	5	.
.	.	8b-\L	2	.
1r	.	8dd\	4	.
.	.	8ff\J	5	.
.	.	8cc\L	2	.
.	.	8ee-\	4	.
.	.	8ff\J	5	.
.	.	8cc#X\L	2	.
.	.	8een\	4	.
.	.	8ff\J	5	.
=11	=11	=11	=11	=11
!	!	!LO:TX:b:i:t=Tempo primo	!	!LO:DY:rj
8B-\L	.	2.ff 2.dd\	2 4	f
8A\	.	.	.	.
8B-\J	.	.	.	.
8d\L	.	.	.	.
8c\	.	.	.	.
8B-\J	.	.	.	.
!!LO:LB:g=original
!	!	!LO:TX:b:i:t=znowu ruch początkowy	!	!
8A\L	.	4.ff 4.dd\	.	.
8G\	.	.	.	.
8F\J	.	.	.	.
8E-\L	.	4.ff 4.dd\	.	.
8D\	.	.	.	.
8C\J	.	.	.	.
=12	=12	=12	=12	=12
[2.BB-/	.	8ffL 8dd\	.	.
.	.	8gg 8ee-\	.	.
.	.	8ffJ 8dd\	.	.
.	.	8ffL 8dd\	.	.
.	.	8ff 8dd\	.	.
.	.	8ffJ 8dd\	.	.
4.BB-/]	.	8ffL 8dd\	.	.
.	.	8ee- 8cc\	.	.
.	.	8ddJ 8b-\	.	.
4BB-/	.	8ddL 8b-\	.	.
.	.	8dd 8b-\	.	.
8AA/	.	8ddJ 8b-\	.	.
=13	=13	=13	=13	=13
!	!	!LO:N:vis=2	!	!
8GG/L	.	2.dd 2.b-\	.	.
8BB-/	.	.	.	.
8AA/J	.	.	.	.
8GG/L	.	.	.	.
8BB-/	.	.	.	.
8C/J	.	.	.	.
8C#X/L	.	4.dd 4.b-\	.	.
8D/	.	.	.	.
8E-/J	.	.	.	.
8En\L	.	4.dd 4.b-\	.	.
8F\	.	.	.	.
8F#X\J	.	.	.	.
=14	=14	=14	=14	=14
1.G	.	8ddL 8b-\	.	.
.	.	8ee- 8cc\	.	.
.	.	8ddJ 8b-\	.	.
.	.	8ddL 8b-\	.	.
.	.	8dd 8b-\	.	.
.	.	8ddJ 8b-\	.	.
.	.	8ddL 8b-\	3 5	.
.	.	8cc 8a\	.	.
.	.	8b-J 8g\	.	.
.	.	8b-L 8g/	.	.
.	.	8b- 8g/	.	.
.	.	8b-J 8g/	.	.
=15	=15	=15	=15	=15
!	!	!	!	!LO:DY:rj
8E-\L	3	2.gg 2.ee-\	.	f
8G\	.	.	.	.
8F\J	.	.	.	.
8E-\L	.	.	.	.
8G\	.	.	.	.
8A\J	4	.	.	.
8B-\L	.	4.ff 4.dd\	.	.
8d\	.	.	.	.
8c\J	.	.	.	.
8B-\L	.	4.ff 4.dd\	.	.
8c\	.	.	.	.
8d\J	.	.	.	.
=16	=16	=16	=16	=16
8F\L	.	2.ee- 2.cc\	.	.
8A\	.	.	.	.
8G\J	.	.	.	.
8F\L	.	.	.	.
8G\	.	.	.	.
8A\J	.	.	.	.
8B-\L	.	4.dd 4.b-\	.	.
8A\	.	.	.	.
8G\J	.	.	.	.
8F\L	.	4.dd 4.b-\	.	.
8E-\	.	.	.	.
8D\J	.	.	.	.
!!LO:LB:g=original
=17	=17	=17	=17	=17
8E-\L	.	16cc\LL	3	.
.	.	16bn\	.	.
8G\	.	16dd\	.	.
.	.	16cc\	.	.
8c\J	.	16b\	.	.
.	.	16cc\JJ	.	.
*rep	*	*	*	*
8E-\L	.	8g\L	.	.
8G\	.	8ee-\	.	.
8c\J	.	8cc\J	.	.
*Xrep	*	*	*	*
8F\L	.	4.b-X\	.	.
8B-\	.	.	.	.
8d\J	.	.	.	.
8F\L	.	8a/	.	.
!	!	!LO:N:vis=8.	!	!
8c\	.	4r	.	.
8e-\J	.	.	.	.
=18	=18	=18	=18	=18
8B-\L	4	4b-\	.	.
8d\	.	.	.	.
8f\J	.	8r	.	.
*rep	*	*	*	*
8B-\L	4	4dd\	2	.
8d\	.	.	.	.
!	!	!LO:TX:b:i:t=dolce	!	!
8f\J	.	8een\	.	.
*Xrep	*	*	*	*
8A\L	4	8ff\	.	.
8c\	.	8r	.	.
8f\J	.	8cc\	1	.
8G\L	5	4b-\	2	.
8c\	2	.	.	.
8en\J	.	8cc\	3	.
=19	=19	=19	=19	=19
8F\L	.	4a/	.	.
8c\	.	.	.	.
8f\J	.	8r	.	.
8B-\L	.	4dd\	2	.
8d\	.	.	.	.
!	!	!LO:TX:b:i:t=dolce	!	!
8f\J	.	8een\	.	.
8A\L	.	4ff\	.	.
8c\	.	.	.	.
8f\J	.	8cc\	.	.
8G\L	.	4b-\	.	.
8c\	.	.	.	.
8f\J	.	8cc\	.	.
=20	=20	=20	=20	=20
8F\L	.	4a/	.	.
8A\	.	.	.	.
8c\J	.	8r	.	.
*rep	*	*	*	*
8F\L	.	8ff\L	.	.
8A\	.	8aa\	.	.
8c\J	.	8ff\J	.	.
*Xrep	*	*	*	*
8G\L	.	4.een\	1	.
8B-\	.	.	.	.
8c\J	.	.	.	.
8A\L	.	8ee-X\L	2	.
8c\	.	8gg\	.	.
8f\J	.	8ee-\J	.	.
=21	=21	=21	=21	=21
!	!	!LO:N:vis=4	!	!
8DD/L	.	4.dd\	.	.
8FF/	.	.	.	.
8AA/J	.	.	.	.
8DD/L	.	8gg\L	.	.
8FF/	.	8bb-\	.	.
8BB-/J	.	8dd\J	.	.
8EE-/L	.	4.ff\	.	.
8AA/	.	.	.	.
8C/J	.	.	.	.
8EE-/L	.	8een\L	.	.
8BB-/	.	8dd\	.	.
8D/J	.	8ee\J	.	.
!!LO:PB:g=original
=22	=22	=22	=22	=22
*clefG2	*	*	*	*
4a 4f/	1 3	16ff\LL	.	.
.	.	16cc\	.	.
.	.	16een\	.	.
.	.	16cc\	.	.
8r	.	16ff\	.	.
.	.	16cc\JJ	.	.
4b- 4g 4c/	5 2 1	16ff#X\LL	.	.
.	.	16cc\	.	.
.	.	16gg\	.	.
.	.	16cc\	.	.
8b- 8g 8c/	.	16een\	.	.
.	.	16cc\JJ	.	.
4a 4f/	.	16ffn\LL	.	.
.	.	16cc\	.	.
.	.	16een\	.	.
.	.	16cc\	.	.
8r	.	16ff\	.	.
.	.	16cc\JJ	.	.
4b- 4g 4c/	.	16ff#X\LL	.	.
.	.	16cc\	.	.
.	.	16gg\	.	.
.	.	16cc\	.	.
8b- 8g 8c/	.	16ee\	.	.
.	.	16cc\JJ	.	.
=23	=23	=23	=23	=23
4a 4f/	.	16ff\LL	.	.
.	.	16gg\	.	.
.	.	16ff\	.	.
.	.	16een\	.	.
8r	.	16ff\	.	.
.	.	16ff#X\JJ	.	.
4r	.	16gg\LL	.	.
.	.	16gg#X\	.	.
.	.	16aa\	.	.
.	.	16bb-\	.	.
8r	.	16bbn\	.	.
.	.	16ccc\JJ	.	.
*	*	*8va	*	*
2.b- 2.g 2.c/	.	16ccc#X\LL	.	.
.	.	16ddd\	.	.
.	.	16eee-X\	.	.
.	.	16eeen\	.	.
.	.	16fffny\	.	.
.	.	16fff#X\JJ	.	.
.	.	16gggny\LL	.	.
.	.	16ggg#X\	.	.
.	.	16aaa\	.	.
.	.	16bbb\	.	.
.	.	16eeen\	.	.
.	.	16ggg#\JJ	.	.
=24	=24	=24	=24	=24
4a 4f/	.	16fff\LL	.	.
.	.	16ccc\	.	.
.	.	16eeen\	.	.
.	.	16ccc\	.	.
8r	.	16fff\	.	.
.	.	16ccc\JJ	.	.
4b- 4g 4c/	.	16fff#X\LL	.	.
.	.	16ccc\	.	.
.	.	16ggg\	.	.
.	.	16ccc\	.	.
8b- 8g 8c/	.	16eee\	.	.
.	.	16ccc\JJ	.	.
!!LO:LB:g=original
!	!	!LO:SIC:v:o=16fff#\LL	!	!
4a 4f/	.	16ffn\LL	.	.
.	.	16ccc\	.	.
.	.	16eee\	.	.
.	.	16ccc\	.	.
!	!	!LO:SIC:v:o=16fff#\	!	!
8r	.	16ffn\	.	.
.	.	16ccc\JJ	.	.
4b- 4g 4c/	.	16fff#X\LL	.	.
.	.	16ccc\	.	.
.	.	16ggg\	.	.
.	.	16ccc\	.	.
8b- 8g 8c/	.	16eee\	.	.
.	.	16ccc\JJ	.	.
=25	=25	=25	=25	=25
4a 4f/	.	16fff\LL	.	.
.	.	16ggg\	.	.
.	.	16fff\	.	.
.	.	16eeen\	.	.
8r	.	16fff\	.	.
.	.	16ggg\JJ	.	.
4r	.	16aaa\LL	.	.
.	.	16ggg\	.	.
.	.	16fff\	.	.
.	.	16eee\	.	.
8r	.	16ddd\	.	.
.	.	16ccc\JJ	4	.
*	*	*X8va	*	*
!	!	!LO:TX:a:t=loco	!	!
2.b- 2.g 2.c/	.	16bb-\LL	.	.
.	.	16aa\	.	.
.	.	16gg\	.	.
.	.	16ff\	.	.
.	.	16ee\	.	.
.	.	16ff\JJ	.	.
.	.	16ff#X\LL	.	.
.	.	16gg\	.	.
.	.	16gg#X\	.	.
.	.	16aa\	.	.
.	.	16bb-\	.	.
.	.	16ee\JJ	.	.
*clefF4	*	*	*	*
=26	=26	=26	=26	=26
8F\L	5	[4.ff\	2	.
8A\	.	.	.	.
8c\J	.	.	.	.
*rep	*	*	*	*
8F\L	5	8ff\L]	.	.
8A\	.	8aa\	.	.
8c\J	.	8ff\J	.	.
*Xrep	*	*	*	*
8G\L	4	4.een\	.	.
8B-\	.	.	.	.
8c\J	.	.	.	.
8A\L	.	8ee-X\L	2	.
8c\	.	8gg\	.	.
8f\J	.	8ee-\J	.	.
=27	=27	=27	=27	=27
8B-\L	4	4dd\	.	.
8d\	.	.	.	.
8f\J	.	8r	.	.
8D\L	5	8b-\L	.	.
8F\	3	8dd\	.	.
8B-\J	1	8b-\J	.	.
!	!	!	!	!LO:HP:t=decrescen&colon;
8E-\L	4	4cc\	.	>
8G\	.	.	.	.
8c\J	.	8cc\	.	.
8En\L	.	4cc 4b-\	.	.
8G\	.	.	.	.
8c\J	.	8cc 8b-\	.	.
!!LO:LB:g=original
=28	=28	=28	=28	=28
8F\L	.	4.cc 4.a\	.	.
8A\	.	.	.	.
8c\J	.	.	.	.
8En\L	.	4cc 4b-\	.	.
8G\	.	.	.	.
8c\J	.	8cc 8b-\	.	.
*rep	*	*	*	*
8E\L	.	4cc 4a\	.	.
8G\	.	.	.	.
8c\J	.	8cc 8a\	.	.
*Xrep	*	*	*	*
*rep	*	*	*	*
8E\L	.	4cc 4b-\	.	.
8G\	.	.	.	.
8c\J	.	8cc 8b-\	.	.
*Xrep	*	*	*	*
=29	=29	=29	=29	=29
2.F\	.	8a\L	.	.
.	.	8cc\	.	.
.	.	8ff\J	.	.
!	!	!LO:TX:b:i:t=rallent&colon;	!	!
.	.	8b-\L	.	.
.	.	8dd\	.	.
.	.	8ff\J	.	.
4r	.	8cc\L	.	.
.	.	8ee-\	.	.
2r	.	8ff\J	.	.
.	.	8cc#X\L	.	.
.	.	8een\	.	.
.	.	8ff\J	.	.
=30	=30	=30	=30	=30
8B-\L	.	2.ff 2.dd\	.	.
8G\	.	.	.	.
8B-\J	.	.	.	.
8d\L	.	.	.	.
8c\	.	.	.	.
8B-\	.	.	.	.
8A\	.	4.ff 4.dd\	.	.
8G\	.	.	.	.
8F\J	.	.	.	.
8E-\L	.	4.ff 4.dd\	.	.
8D\	.	.	.	.
8C\J	.	.	.	.
=31	=31	=31	=31	=31
[2.BB-/	.	8ffL 8dd\	.	.
.	.	8gg 8ee-\	.	.
.	.	8ffJ 8dd\	.	.
.	.	8ffL 8dd\	.	.
.	.	8ff 8dd\	.	.
.	.	8ffJ 8dd\	.	.
4.BB-/_	.	8ffL 8dd\	.	.
.	.	8ee- 8cc\	.	.
.	.	8ddJ 8b-\	.	.
4BB-/]	.	8ddL 8b-\	.	.
.	.	8dd 8b-\	.	.
8AA/	.	8ddJ 8b-\	.	.
=32	=32	=32	=32	=32
8GG/L	.	2.dd 2.b-\	.	.
8BB-/	.	.	.	.
8AA/J	.	.	.	.
8GG/L	.	.	.	.
8BB-/	.	.	.	.
8C/J	.	.	.	.
8C#X\L	.	4.dd 4.b-\	.	.
8D\	.	.	.	.
8E-\J	.	.	.	.
8En\L	.	4.dd 4.b-\	.	.
8F\	.	.	.	.
8F#X\J	.	.	.	.
!!LO:LB:g=original
=33	=33	=33	=33	=33
1.G	.	8ddL 8b-\	.	.
.	.	8ee- 8cc\	.	.
.	.	8ddJ 8b-\	.	.
.	.	8ddL 8b-\	.	.
.	.	8dd 8b-\	.	.
.	.	8ddJ 8b-\	.	.
.	.	8ddL 8b-\	.	.
.	.	8cc 8a\	.	.
.	.	8b-J 8g\	.	.
.	.	8b-L 8g/	.	.
.	.	8b- 8g/	.	.
.	.	8b-J 8g/	.	.
=34	=34	=34	=34	=34
!	!	!	!	!LO:DY:rj
8E-\L	.	2.gg 2.ee-\	.	ff
8G\	.	.	.	.
8F\J	.	.	.	.
8E-\L	.	.	.	.
8G\	.	.	.	.
8A\J	.	.	.	.
8B-\L	.	4.ff 4.dd\	.	.
8d\	.	.	.	.
8c\J	.	.	.	.
8B-\L	.	4.ff 4.dd\	.	.
8c\	.	.	.	.
8d\J	.	.	.	.
=35	=35	=35	=35	=35
8F\L	.	2.ee- 2.cc\	.	.
8A\	.	.	.	.
8G\J	.	.	.	.
8F\L	.	.	.	.
8G\	.	.	.	.
8A\J	.	.	.	.
8B-\L	.	4.dd 4.b-\	.	.
8A\	.	.	.	.
8G\J	.	.	.	.
8F\L	.	4.dd 4.b-\	.	.
8E-\	.	.	.	.
8D\J	.	.	.	.
=36	=36	=36	=36	=36
8E-\L	.	16cc\LL	.	.
.	.	16bn\	.	.
8G\	.	16dd\	.	.
.	.	16cc\	.	.
8c\J	.	16b\	.	.
.	.	16cc\JJ	.	.
*rep	*	*	*	*
8E-\L	.	8gg\L	.	.
8G\	.	8ee-\	.	.
8c\J	.	8cc\J	.	.
*Xrep	*	*	*	*
8F\L	.	4.b-X\	.	.
8B-\	.	.	.	.
8d\J	.	.	.	.
8F\L	.	4.a/	.	.
8c\	.	.	.	.
8e-\J	.	.	.	.
=37	=37	=37	=37	=37
8B-\L	.	4b-\	.	.
8d-X\	.	.	.	.
8f\J	.	8r	.	.
*rep	*	*	*	*
8B-\L	.	4ff\	4	.
8d-\	.	.	.	.
8f\J	.	8ff\	.	.
*Xrep	*	*	*	*
8cL 8A\	.	4gg-X\	5	.
8e-\	.	.	.	.
8f\J	.	8ff\	.	.
*rep	*	*	*	*
8cL 8A\	.	4cc\	1	.
8e-\	.	.	.	.
8f\J	.	8cc\	.	.
*Xrep	*	*	*	*
=38	=38	=38	=38	=38
8B-\L	.	4ee-\	3	.
8d-X\	.	.	.	.
8f\J	.	8dd-X\	.	.
!!LO:LB:g=original
*rep	*	*	*	*
8B-\L	.	4ff\	.	.
8d-\	.	.	.	.
8f\J	.	8ff\	.	.
*Xrep	*	*	*	*
8cL 8A\	.	4gg-X\	5	.
8e-\	.	.	.	.
8f\J	.	8ff\	.	.
*rep	*	*	*	*
8cL 8A\	.	4cc\	1	.
8e-\	.	.	.	.
8f\J	.	8cc\	.	.
*Xrep	*	*	*	*
=39	=39	=39	=39	=39
8B-\L	.	4dd-X\	2	.
8d-X\	.	.	.	.
8f\J	.	8r	.	.
8D-X\L	.	4dd-\	4	.
8F\	.	.	.	.
8B-\J	.	8dd-\	.	.
8E-\L	.	4cc\	.	.
8G-X\	.	.	.	.
8c\J	.	8cc\	.	.
8En\L	.	4b-\	.	.
8Gn\	.	.	.	.
8c\J	.	8b-\	.	.
=40	=40	=40	=40	=40
8F\L	4	4.a/	.	.
8A\	.	.	.	.
8c\J	.	.	.	.
8En\L	5	4cc 4b-\	2 3	.
8G\	.	.	.	.
8c\J	.	8cc 8b-\	.	.
8F\L	4	4cc 4a\	.	.
8A\	.	.	.	.
8c\J	.	8cc 8a\	.	.
8E\L	5	4cc 4b-\	.	.
8G\	.	.	.	.
8c\J	.	8cc 8b-\	.	.
=41	=41	=41	=41	=41
2.F\	.	8a\L	.	.
.	.	8cc\	.	.
.	.	8ff\J	.	.
.	.	8b-\L	.	.
!	!	!LO:TX:b:i:t=rallent&colon;	!	!
.	.	8dd\	.	.
.	.	8ff\J	.	.
4r	.	8cc\L	.	.
.	.	8ee-\	.	.
2r	.	8ff\J	.	.
.	.	8cc#X\L	.	.
.	.	8een\	.	.
.	.	8ff\J	.	.
=42	=42	=42	=42	=42
8B-\L	3	2.ff 2.dd\	2 4	f
8G\	.	.	.	.
8B-\J	.	.	.	.
!	!	!LO:TX:a:i:t=Tempo 1mo	!	!
8d\L	.	.	.	.
8c\	.	.	.	.
8B-\	.	.	.	.
8A\	.	4.ff 4.dd\	.	.
8G\	.	.	.	.
8F\J	.	.	.	.
8E-\L	.	4.ff 4.dd\	.	.
8D\	.	.	.	.
8C\J	.	.	.	.
=43	=43	=43	=43	=43
!LO:N:vis=2	!	!	!	!
[2.BB-/	.	8ffL 8dd\	.	.
.	.	8gg 8ee-\	.	.
.	.	8ffJ 8dd\	.	.
.	.	8ffL 8dd\	.	.
.	.	8ff 8dd\	.	.
.	.	8ffJ 8dd\	.	.
!!LO:LB:g=original
4.BB-/]	.	8ffL 8dd\	.	.
.	.	8ee- 8cc\	.	.
.	.	8ddJ 8b-\	.	.
!LO:N:vis=4.	!	!	!	!
4BB-/	.	8ddL 8b-\	.	.
.	.	8dd 8b-\	.	.
8AA/	.	8ddJ 8b-\	.	.
=44	=44	=44	=44	=44
8GG/L	.	2.dd 2.b-\	.	.
8BB-/	.	.	.	.
8AA/J	.	.	.	.
8GG/L	.	.	.	.
8BB-/	.	.	.	.
8C/J	.	.	.	.
8C#X\L	.	4.dd 4.b-\	.	.
8D\	.	.	.	.
8E-\J	.	.	.	.
8En\L	.	4.dd 4.b-\	.	.
8F\	.	.	.	.
8F#X\J	.	.	.	.
=45	=45	=45	=45	=45
1.G	.	8ddL 8b-\	.	.
.	.	8ee- 8cc\	.	.
.	.	8ddJ 8b-\	.	.
.	.	8ddL 8b-\	.	.
.	.	8dd 8b-\	.	.
.	.	8ddJ 8b-\	.	.
.	.	8ddL 8b-\	.	.
.	.	8cc 8a\	.	.
.	.	8b-J 8g\	.	.
.	.	8b-L 8g/	.	.
.	.	8b- 8g/	.	.
.	.	8b-J 8g/	.	.
=46	=46	=46	=46	=46
8E-\L	.	2.gg 2.ee-\	.	.
8G\	.	.	.	.
8F\J	.	.	.	.
8E-\L	.	.	.	.
8G\	.	.	.	.
8A\J	.	.	.	.
8B-\L	.	4.ff 4.dd\	.	.
8d\	.	.	.	.
8c\J	.	.	.	.
8B-\L	.	4.ff 4.dd\	.	.
8c\	.	.	.	.
8d\J	.	.	.	.
=47	=47	=47	=47	=47
8F\L	.	2.ee- 2.cc\	.	.
8A\	.	.	.	.
8G\J	.	.	.	.
8F\L	.	.	.	.
8G\	.	.	.	.
8A\J	.	.	.	.
8B-\L	.	4.dd 4.b-\	.	.
8A\	.	.	.	.
8G\J	.	.	.	.
8F\L	.	4.dd 4.b-\	.	.
8E-\	.	.	.	.
8D\J	.	.	.	.
=48	=48	=48	=48	=48
8E-\L	.	16cc\LL	.	.
.	.	16bn\	.	.
8G\	.	16dd\	.	.
.	.	16cc\	.	.
8c\J	.	16b\	.	.
.	.	16cc\JJ	.	.
*rep	*	*	*	*
8E-\L	.	8g\L	.	.
8G\	.	8ee-\	.	.
8c\J	.	8cc\J	.	.
*Xrep	*	*	*	*
!!LO:PB:g=original
!	!	!LO:SIC:v:o=4.b\	!	!
8F\L	.	4b-	.	.
8B-\	.	.	.	.
8d\J	.	.	.	.
8F\L	.	4.a/	.	.
8c\	.	.	.	.
8e-\J	.	.	.	.
=49	=49	=49	=49	=49
*	*	*^	*	*
4d 4B-\	.	16b-/LL	4.ryy	2	.
.	.	16f/	.	1	.
.	.	16dd/	.	4	.
.	.	16f/	.	1	.
8r	.	16b-/	.	2	.
.	.	16f/JJ	.	1	.
4d 4B- 4G\	.	16b-/LL	16ryy	2	.
!	!	!	!LO:N:vis=4	!	!
.	.	16g/	16g\	.	.
!	!	!	!LO:N:vis=4	!	!
.	.	16dd/	16dd\	4	.
!	!	!	!LO:N:vis=4	!	!
.	.	16g/	16g\	.	.
!	!	!	!LO:N:vis=4	!	!
8d 8B- 8G\	.	16b-/	16b-\	2	.
!	!	!	!LO:N:vis=4	!	!
.	.	16g/JJ	16g\	.	.
4c 4G 4E-\	.	16cc\LL	4.ryy	3	.
.	.	16g\	.	.	.
.	.	16ee-\	.	5	.
.	.	16g\	.	.	.
8c 8G 8E-\	.	16cc\	.	3	.
.	.	16g\JJ	.	.	.
4c 4A 4F\	.	16a/LL	4.ryy	2	.
.	.	16f/	.	.	.
.	.	16cc/	.	4	.
.	.	16f/	.	.	.
8c 8A 8F\	.	16a/	.	2	.
.	.	16f/JJ	.	.	.
*	*	*v	*v	*	*
=50	=50	=50	=50	=50
*tremolo	*	*	*	*
!LO:TX:a:t=P:problem=złe wyświetlanie wartości rytmicznej tremolo	!	!	!	!
!LO:N:TREM:vis=2	!	!	!	!
16B-\LL	2	16b-/LL	3	.
!	!	!	!	!LO:HP:t=crescendo
16d\	.	16f/	.	<
16B-\	.	16dd/	5	.
!LO:TX:a:t=P:problem=złe wyświetlanie wartości rytmicznej tremolo	!	!	!	!
!LO:N:TREM:vis=2	!	!	!	!
16d\	.	16f/	.	.
16B-\	.	16b-/	3	.
16d\JJ	.	16f/JJ	.	.
*Xtremolo	*	*	*	*
16G\LL	4	16b-/LL	3	.
16d\	.	16g/	.	.
16B-\	2	16dd/	5	.
16d\	.	16g/	.	.
16G\	4	16b-/	3	.
16B-\JJ	.	16g/JJ	.	.
16E-\LL	5	16cc/LL	3	.
16c\	.	16g/	.	.
16G\	3	16ee-/	5	.
16c\	.	16g/	.	.
16E-\	5	16cc/	3	.
16c\JJ	.	16g/JJ	.	.
16F\LL	4	16a/LL	2	.
16c\	.	16f/	.	.
16A\	2	16cc/	4	.
16c\	.	16f/	.	.
16F\	4	16a/	2	.
16c\JJ	.	16f/JJ	.	.
=51	=51	=51	=51	=51
*tremolo	*	*	*	*
!LO:TX:a:t=P:problem=złe wyświetlanie wartości rytmicznej tremolo w całym takcie	!	!	!	!
!LO:N:TREM:vis=2	!	!	!	!
16B-\LL	2	8b-\L	3	.
16d\	.	.	.	.
16B-\	.	8dd 8b-\	3 5	.
!LO:N:TREM:vis=2	!	!	!	!
16d\	.	.	.	.
16B-\	.	8ddJ 8b-\	.	.
16d\JJ	.	.	.	.
!LO:N:TREM:vis=2	!	!	!	!
16B- 16G\LL	2 4	8bb-L 8dd 8b-\	1 5	.
16d\	.	.	.	.
16B- 16G\	.	8bb- 8dd\	.	.
!LO:N:TREM:vis=2	!	!	!	!
16d\	.	.	.	.
16B- 16G\	.	8bb-J 8dd\	.	.
16d\JJ	.	.	.	.
!LO:N:TREM:vis=2	!	!	!	!
16G 16E-\LL	3 5	8bb-L 8cc\	1 5	.
16c\	.	.	.	.
16G 16E-\	.	8bb- 8cc\	.	.
!LO:N:TREM:vis=2	!	!	!	!
16c\	.	.	.	.
16G 16E-\	.	8bb-J 8cc\	.	.
16c\JJ	.	.	.	.
!!LO:LB:g=original
!LO:N:TREM:vis=2	!	!	!	!
16A 16F\LL	.	8aaL 8cc\	.	.
16c\	.	.	.	.
16A 16F\	.	8aa 8cc\	.	.
!LO:N:TREM:vis=2	!	!	!	!
16c\	.	.	.	.
16A 16F\	.	8aaJ 8cc\	.	.
16c\JJ	.	.	.	.
*Xtremolo	*	*	*	*
=52	=52	=52	=52	=52
8B-\L	3	16dd\LL	1	.
.	.	16bb-\	4	.
8f\	1	16dd\	.	.
.	.	16bb-\	.	.
8d\J	2	16dd\	.	.
.	.	16bb-\JJ	.	.
*	*	*rep	*	*
8B-\L	3	16dd\LL	1	.
.	.	16bb-\	4	.
8d\	2	16dd\	.	.
.	.	16bb-\	.	.
8B-\J	3	16dd\	.	.
.	.	16bb-\JJ	.	.
*	*	*Xrep	*	*
*	*	*rep	*	*
8F\L	5	16dd\LL	1	.
.	.	16bb-\	4	.
8B-\	2	16dd\	.	.
.	.	16bb-\	.	.
8F\J	1	16dd\	.	.
.	.	16bb-\JJ	.	.
*	*	*Xrep	*	*
*	*	*rep	*	*
8D\L	2	16dd\LL	1	.
.	.	16bb-\	4	.
8F\	1	16dd\	.	.
.	.	16bb-\	.	.
8D\J	2	16dd\	.	.
.	.	16bb-\JJ	.	.
*	*	*Xrep	*	*
=53	=53	=53	=53	=53
16BB-\LL	4	8dd\L	.	.
16F\	1	.	.	.
16D 16BB-\	4 2	8ff\	2	.
16F\	1	.	.	.
16D 16BB-\	.	8dd\J	1	.
16F\JJ	.	.	.	.
*rep	*	*	*	*
16BB-\LL	4	8b-\L	2	.
16F\	1	.	.	.
16D 16BB-\	4 2	8dd\	4	.
16F\	1	.	.	.
16D 16BB-\	.	8b-\J	2	.
16F\JJ	.	.	.	.
*Xrep	*	*	*	*
*rep	*	*	*	*
16BB-\LL	4	8f/L	1	.
16F\	1	.	.	.
16D 16BB-\	4 2	8b-/	4	.
16F\	1	.	.	.
16D 16BB-\	.	8f/J	2	.
16F\JJ	.	.	.	.
*Xrep	*	*	*	*
*rep	*	*	*	*
16BB-\LL	4	8d/L	.	.
16F\	1	.	.	.
16D 16BB-\	4 2	8f/	2	.
16F\	1	.	.	.
16D 16BB-\	.	8d/J	.	.
16F\JJ	.	.	.	.
*Xrep	*	*	*	*
=54	=54	=54	=54	=54
4F 4D 4BB-\	.	4B-/	.	.
8r	.	8r	.	.
4F 4D 4BB-\	.	4bb- 4ff 4dd\	1 2 4	.
8r	.	8r	.	.
4F 4D 4BB-\	.	4bb- 4ff 4dd\	.	.
8r	.	8r	.	.
4.r	.	4.r	.	.
==	==	==	==	==
*-	*-	*-	*-	*-
!!!system-decoration: {s1,s2}
!!!ENC: Anastazja Marusiak
!!!END: 2020-06-17
!!!ENC: Marta Lawrence
!!!END: 2022-01-06
